remix/Map/parking-fill.svg

<svg viewBox="0 0 24 24" fill="currentColor" xmlns="http://www.w3.org/2000/svg"><path d="M6 3H13C16.3137 3 19 5.68629 19 9C19 12.3137 16.3137 15 13 15H10V21H6V3ZM10 7V11H13C14.1046 11 15 10.1046 15 9C15 7.89543 14.1046 7 13 7H10Z"/></svg>

<svg viewBox="0 0 24 24" xmlns="http://www.w3.org/2000/svg"><path fill="none" d="M0 0h24v24H0Z"/><path d="M6 3h7v0c3.31 0 6 2.68 6 6 0 3.31-2.69 6-6 6h-3v6H6V3Zm4 4v4h3v0c1.1 0 2-.9 2-2 0-1.11-.9-2-2-2h-3Z"/></svg>
